flaticon/productivity-and-development/stats-3.svg

<svg xmlns="http://www.w3.org/2000/svg" width="32" height="32" viewBox="0 0 24 24">
    <path d="M 1.019531 0.511719 L 0 0.511719 L 0 24 L 23.488281 24 L 23.488281 22.980469 L 1.019531 22.980469 Z M 1.019531 0.511719"/>
    <path d="M 5.351562 21.757812 C 6.90625 21.757812 8.175781 20.492188 8.175781 18.933594 C 8.175781 17.941406 7.660156 17.066406 6.882812 16.5625 L 7.429688 11.585938 C 7.585938 11.613281 7.75 11.628906 7.914062 11.628906 C 8.515625 11.628906 9.078125 11.4375 9.535156 11.113281 L 15.523438 12.671875 C 15.71875 14.042969 16.898438 15.097656 18.320312 15.097656 C 19.875 15.097656 21.144531 13.828125 21.144531 12.269531 C 21.144531 11.242188 20.589844 10.34375 19.769531 9.847656 L 21.214844 5.648438 C 22.753906 5.628906 24 4.371094 24 2.824219 C 24 1.265625 22.734375 0 21.175781 0 C 19.617188 0 18.351562 1.265625 18.351562 2.824219 C 18.351562 4.039062 19.117188 5.074219 20.195312 5.472656 L 18.8125 9.492188 C 18.652344 9.460938 18.488281 9.445312 18.320312 9.445312 C 16.980469 9.445312 15.859375 10.378906 15.570312 11.628906 L 10.328125 10.265625 C 10.589844 9.839844 10.738281 9.339844 10.738281 8.804688 C 10.738281 7.246094 9.472656 5.980469 7.914062 5.980469 C 6.355469 5.980469 5.089844 7.246094 5.089844 8.804688 C 5.089844 9.824219 5.628906 10.71875 6.441406 11.214844 L 5.902344 16.164062 C 5.722656 16.128906 5.539062 16.109375 5.351562 16.109375 C 3.792969 16.109375 2.523438 17.375 2.523438 18.933594 C 2.523438 20.492188 3.792969 21.757812 5.351562 21.757812 Z M 19.371094 2.824219 C 19.371094 1.832031 20.179688 1.019531 21.175781 1.019531 C 22.167969 1.019531 22.980469 1.832031 22.980469 2.824219 C 22.980469 3.820312 22.167969 4.628906 21.175781 4.628906 C 20.179688 4.628906 19.371094 3.820312 19.371094 2.824219 Z M 18.320312 10.46875 C 19.3125 10.46875 20.121094 11.277344 20.121094 12.269531 C 20.121094 13.265625 19.3125 14.074219 18.320312 14.074219 C 17.324219 14.074219 16.515625 13.265625 16.515625 12.269531 C 16.515625 11.277344 17.324219 10.46875 18.320312 10.46875 Z M 7.914062 7 C 8.90625 7 9.714844 7.808594 9.714844 8.804688 C 9.714844 9.796875 8.90625 10.609375 7.914062 10.609375 C 6.917969 10.609375 6.109375 9.796875 6.109375 8.804688 C 6.109375 7.808594 6.917969 7 7.914062 7 Z M 5.351562 17.128906 C 6.34375 17.128906 7.152344 17.9375 7.152344 18.933594 C 7.152344 19.925781 6.34375 20.738281 5.351562 20.738281 C 4.355469 20.738281 3.546875 19.925781 3.546875 18.933594 C 3.546875 17.9375 4.355469 17.128906 5.351562 17.128906 Z M 5.351562 17.128906"/>
</svg>

<svg xmlns="http://www.w3.org/2000/svg" width="32" height="32" viewBox="0 0 24 24">
    <path d="M1.02.512H0V24h23.488v-1.02H1.02zm0 0"/>
    <path d="M5.352 21.758a2.828 2.828 0 0 0 2.824-2.824c0-.993-.516-1.868-1.293-2.372l.547-4.976a2.8 2.8 0 0 0 2.105-.473l5.988 1.559a2.829 2.829 0 0 0 2.797 2.426 2.832 2.832 0 0 0 2.825-2.828 2.832 2.832 0 0 0-1.375-2.422l1.445-4.2A2.825 2.825 0 0 0 21.175 0a2.826 2.826 0 0 0-2.823 2.824c0 1.215.765 2.25 1.843 2.649l-1.383 4.02a2.564 2.564 0 0 0-.492-.048c-1.34 0-2.46.934-2.75 2.184l-5.242-1.363c.262-.426.41-.926.41-1.461A2.826 2.826 0 0 0 7.914 5.98a2.826 2.826 0 0 0-1.473 5.235l-.539 4.95a2.83 2.83 0 0 0-3.379 2.77 2.83 2.83 0 0 0 2.829 2.823zm14.02-18.934c0-.992.808-1.804 1.804-1.804a1.81 1.81 0 0 1 1.804 1.804c0 .996-.812 1.805-1.804 1.805a1.805 1.805 0 0 1-1.805-1.805zM18.32 10.47a1.804 1.804 0 0 1 0 3.605 1.805 1.805 0 0 1-1.804-1.804c0-.993.808-1.801 1.804-1.801zM7.914 7a1.805 1.805 0 0 1 0 3.61 1.805 1.805 0 0 1 0-3.61zM5.352 17.129a1.805 1.805 0 0 1 0 3.61 1.805 1.805 0 0 1 0-3.61zm0 0"/>
</svg>
